X: 456
T: The girl who broke my heart
C:anon.
O:Ireland
B:Francis O'Neill: "The Dance Music of Ireland" (1907) no. 456
R:Reel
Z:Transcribed by Frank Nordberg - http://www.musicaviva.com
F:http://www.musicaviva.com/abc/tunes/ireland/oneill-1001/oneill-1001-045
6.abc
m:~n2 = o/4n/m/4n
m:Tn = n//o//n/
M:C|
L:1/8
K:Gm
(dc)|BGFG DC-~C2|DG({A}G^F) GABc|d=efd cAGF|D(F{G}FE) F2(dc)|BGFG DC-~C
2|D(G{A}G^F) GABc|d=efd cAGF|D(G{A}G^F) G2||
(D^F)|G2(Bd) gdBG|F2(Ac) fcAF|G2(Bd) gdBd|Tc=Bcd cAFA|G2(Bd) gdBG|F2(Ac
) fcdB|GABd cAGF|D(G{A}G^F) G2|]
W:
W:
W:  From Musica Viva - http://www.musicaviva.com
W:  the Internet center for free sheet music downloads.


